release/img/home-flat.svg

<svg width="31" height="31" viewBox="0 0 31 31" fill="none" xmlns="http://www.w3.org/2000/svg">
<path d="M5.51025 15.2813C5.51025 15.2813 5.51025 15.2258 5.51025 15.198C5.51025 15.1702 5.51025 15.1147 5.53783 15.0869C5.59298 14.7535 5.86874 14.5591 6.08934 14.3369C8.98478 11.6702 11.8802 9.00355 14.7757 6.36466C15.2996 5.86466 15.8511 5.89244 16.3751 6.36466C17.0369 6.97577 17.6987 7.58688 18.3605 8.17021C20.6493 10.2813 22.9381 12.3647 25.2268 14.4758C25.3371 14.5869 25.4474 14.698 25.5302 14.8369C25.9162 15.5313 25.4199 16.3647 24.565 16.3924C24.1238 16.3924 23.655 16.3924 23.2138 16.3924C23.2138 16.3924 23.2138 16.3924 23.1862 16.4202C23.1862 16.5035 23.1862 16.5591 23.1862 16.6424C23.1862 19.2813 23.1862 21.948 23.1862 24.5869C23.1862 25.0591 22.9656 25.2813 22.5244 25.2813C20.925 25.2813 19.2981 25.2813 17.6987 25.2813C17.2575 25.2813 17.0369 25.0313 17.0369 24.6147C17.0369 23.0313 17.0369 21.448 17.0369 19.8647V19.6702H14.1139V19.8647C14.1139 21.448 14.1139 23.0035 14.1139 24.5869C14.1139 25.0035 13.8932 25.3091 13.3969 25.3091C11.8251 25.3091 10.2533 25.3091 8.68145 25.3091C8.18509 25.3091 7.93691 25.0313 7.96449 24.5591C7.96449 22.3091 7.96449 20.0591 7.96449 17.8091C7.96449 17.3647 7.96449 16.8924 7.96449 16.448C7.96449 16.448 7.96449 16.448 7.93691 16.4202C7.4957 16.4202 7.02691 16.4202 6.5857 16.4202C6.03419 16.4202 5.64813 16.1147 5.53783 15.6147C5.53783 15.5591 5.53783 15.5313 5.51025 15.4758C5.51025 15.4758 5.51025 15.4202 5.51025 15.3924V15.3091V15.2813Z" fill="black"/>
<path d="M5.51025 15.0869C5.51025 15.0869 5.51025 15.0869 5.53783 15.0869C5.53783 15.1147 5.53783 15.1702 5.51025 15.198C5.51025 15.1702 5.51025 15.1147 5.51025 15.0869Z" fill="#696666"/>
<path d="M5.53783 15.5588H5.51025C5.51025 15.5588 5.51025 15.4755 5.51025 15.4199C5.51025 15.4755 5.51025 15.5033 5.53783 15.5588Z" fill="#5A5958"/>
<path d="M23.6276 11.3649C22.0834 9.94824 20.5943 8.58713 19.0776 7.19824C19.1604 7.19824 19.1879 7.19824 19.2431 7.19824C20.484 7.19824 21.6973 7.19824 22.9382 7.19824C23.407 7.19824 23.6276 7.42046 23.6276 7.89269C23.6276 9.03158 23.6276 10.1982 23.6276 11.3927V11.3649Z" fill="black"/>
</svg>

<svg xmlns="http://www.w3.org/2000/svg" width="31" height="31" fill="none" viewBox="0 0 31 31">
  <path fill="#000" d="M5.51 15.281v-.083c0-.028 0-.083.028-.111.055-.333.33-.528.551-.75 2.896-2.667 5.791-5.333 8.687-7.972.524-.5 1.075-.473 1.6 0 .66.61 1.323 1.222 1.984 1.805 2.29 2.111 4.578 4.195 6.867 6.306.11.11.22.222.303.36.386.695-.11 1.529-.965 1.556h-1.351l-.028.028v8.167c0 .472-.22.694-.662.694H17.7c-.442 0-.662-.25-.662-.666V19.67h-2.923v4.917c0 .416-.22.722-.717.722H8.68c-.496 0-.744-.278-.717-.75v-8.111l-.027-.028h-1.35c-.552 0-.938-.305-1.048-.805 0-.056 0-.084-.028-.14v-.194Z"/>
  <path fill="#696666" d="M5.51 15.087h.028c0 .028 0 .083-.028.111v-.111Z"/>
  <path fill="#5A5958" d="M5.538 15.559H5.51v-.14c0 .056 0 .084.028.14Z"/>
  <path fill="#000" d="M23.628 11.365c-1.545-1.417-3.034-2.778-4.55-4.167h3.86c.469 0 .69.222.69.695v3.5-.028Z"/>
</svg>
